X:1
T:RCM6_August2024_Q6a
%%scale 0.83
%%pagewidth 21.00cm
%%leftmargin 1.50cm
%%rightmargin 1.50cm
%%score { 1 | 2 }
L:1/4
M:4/4
I:linebreak $
K:Eb
V:1 treble nm="Piano" snm="Pno."
V:2 bass 
V:1
 (c/=B/ | c G e/d/ c | d f =B/c/ d | e c g/f/ [Gce] | [G=Bd]3) || %5
V:2
 z | z4 | z4 | z3 C, | G,,3 || %5
